X:169
T: STAND ICH AUF HOHEM BERGE
N: E0089H
O: Europa, Mitteleuropa, Deutschland
R: erzaehlendes Volks - Lied, Sage, Liebe, Leid
M: 2/4
L: 1/16
K: G
D2 | B2G2d2B2 | B4A2
A2 | B2G2d2B2 | A4z2
Bc | d2d2d2de | d2B2G4 |
c4e4 | d2B2G2
B2 | d2B2A2AB | G4z2

@@@ Tune index: 3819
